betterme/img/page-checkout/question-white.svg

<svg width="12" height="16" viewBox="0 0 12 16" fill="none" xmlns="http://www.w3.org/2000/svg">
<path d="M6.31305 0C3.8187 0 2.20311 1.02197 0.934704 2.84456C0.70461 3.17519 0.775548 3.6285 1.09652 3.87188L2.44458 4.89403C2.76874 5.13981 3.22995 5.08234 3.48374 4.76441C4.26652 3.78375 4.84717 3.21913 6.06989 3.21913C7.03127 3.21913 8.22039 3.83784 8.22039 4.77009C8.22039 5.47484 7.63861 5.83678 6.68936 6.36897C5.58239 6.98959 4.11752 7.76197 4.11752 9.69413V10C4.11752 10.4142 4.4533 10.75 4.86752 10.75H7.13224C7.54645 10.75 7.88224 10.4142 7.88224 10V9.81959C7.88224 8.48022 11.7969 8.42444 11.7969 4.8C11.7969 2.0705 8.96558 0 6.31305 0ZM5.99989 11.6706C4.80627 11.6706 3.83517 12.6417 3.83517 13.8353C3.83517 15.0289 4.80627 16 5.99989 16C7.19352 16 8.16461 15.0289 8.16461 13.8353C8.16461 12.6417 7.19352 11.6706 5.99989 11.6706Z" fill="white"/>
</svg>

<svg xmlns="http://www.w3.org/2000/svg" width="12" height="16" fill="none" xmlns:v="https://vecta.io/nano"><path d="M6.313 0C3.819 0 2.203 1.022.935 2.845a.75.75 0 0 0 .162 1.027l1.348 1.022a.75.75 0 0 0 1.039-.13c.783-.981 1.363-1.545 2.586-1.545.961 0 2.151.619 2.151 1.551 0 .705-.582 1.067-1.531 1.599-1.107.621-2.572 1.393-2.572 3.325V10a.75.75 0 0 0 .75.75h2.265a.75.75 0 0 0 .75-.75v-.18c0-1.339 3.915-1.395 3.915-5.02 0-2.729-2.831-4.8-5.484-4.8zM6 11.671a2.17 2.17 0 0 0-2.165 2.165A2.17 2.17 0 0 0 6 16a2.17 2.17 0 0 0 2.165-2.165A2.17 2.17 0 0 0 6 11.671z" fill="#fff"/></svg>
